!!!!SEGMENT: pl-wn--sd-xvi-qu-273--115_gomolka-mikolaj--nie-nam-nasz-panie-stworzeniu-podlemu.krn
!!!cenid: 15xx:320
!!!COM: Gomółka, Mikołaj
!!!COM-rismid: pe30013343
!!!CDT: ~1535->1591/04/30
!!!CNT: Polish
!!!GTL: Melodiae na psalterz polski
!!!OTL: CXV. Nie nam, nasz Panie, stworzeniu podłemu,
!!!ONB: PSAL: CXV. Non nobis domine non nobis, ſed nomini tuo da gloriam.
!!!PDT: 1580
!!!AGN: Sacred
!!!SMS-siglum: PL-Wn
!!!SMS-shelfmark: SD XVI.Qu.273
!!!SMS-shelfwork: 115 G
!!!NIFC-rismid:
!!!ONB-nifc: Melodiae na psalterz polski
**kern	**text	**kern	**text	**kern	**text	**kern	**text
*part4	*part4	*part3	*part3	*part2	*part2	*part1	*part1
*staff4	*staff4	*staff3	*staff3	*staff2	*staff2	*staff1	*staff1
*clefF3	*	*clefC3	*	*clefC3	*	*clefC1	*
*k[b-B-]	*	*k[b-]	*	*k[b-]	*	*k[b-]	*
*D:	*	*D:	*	*D:	*	*D:	*
*M2/1	*	*M2/1	*	*M2/1	*	*M2/1	*
*met(C|)	*	*met(C|)	*	*met(C|)	*	*met(C|)	*
*I"BASSUS.	*	*I"TENOR.	*	*I"ALTUS.	*	*I"CANTUS.	*
=1-	=1	=1-	=1	=1-	=1	=1-	=1
!LO:TX:t=P:dwa bemole przy kluczu:problem	!	!	!	!	!	!	!
1A\	NJe	1c\	NJe	1e\	NJe	1a\	NJe
2A\	nam	2A/	nam	2f\	nam	2cc\	nam,
2c\	náſʒ	2A/	náſʒ	2e\	náſʒ	2a\	náſʒ
=2-	=2	=2-	=2	=2-	=2	=2-	=2
2A\	pá-	2c/	pá-	2e\	pá-	1a\	pá-
2A\	-nie,	2c/	-nie,	2.e\	-nie,	.	.
2A\	ſtwo-	2c/	ſtwo-	.	.	2a\	-nie,
.	.	.	.	4f\	.	.	.
1G\	-rʒe-	1B-/	-rʒe-	1g\	ſtwo-	1b-\	ſtwo-
=3-	=3	=3-	=3	=3-	=3	=3-	=3
.	.	.	.	.	.	.	.
2A\	-niu	2c/	-niu	4f\	-rʒe-	2a\	-rʒe-
.	.	.	.	4e\	.	.	.
2.B-\	po-	2.d\	po-	4d\	-niu	2g/	-niu
.	.	.	.	4e\	.	.	.
.	.	.	.	2f\	po-	1f/	po-
4A\	.	4c/	.	.	.	.	.
=4-	=4	=4-	=4	=4-	=4	=4-	=4
4G\	.	4B-/	.	2d\	.	.	.
4F\	.	4A/	.	.	.	.	.
2G\	-dłe-	2B-/	-dłe-	4c/	-dłe-	2e/	-dłe-
.	.	.	.	4B-/	.	.	.
2F/	-mu,	2A/	-mu,	2c/	-mu,	2f/	-mu,
2E/	A-	2G/	A-	2e\	A-	2g/	A-
=5-	=5	=5-	=5	=5-	=5	=5-	=5
2D/	-le	2F/	-le	2.f\	-le	2a\	-le
2C#X/	cʒiń	2A/	cʒiń	.	.	2a\	cʒyń
.	.	.	.	4e\	cʒiń	.	.
1D/	ſła-	1A/	ſła-	1d\	ſła-	1a\	ſła-
=6-	=6	=6-	=6	=6-	=6	=6-	=6
!!LO:PB:g=original
2G\	-wę	2B-/	-wę	2d\	-wę	2g/	-wę
2G\	i-	2G/	i-	4B-/	i-	2d/	i-
.	.	.	.	4c/	.	.	.
2D/	.	2A/	.	2d\	-mie-	2f/	-mie-
2.G\	-mię-	2.B-/	-mie-	2.G/	-nio-	4e/	.
.	.	.	.	.	.	4d/	.
=7-	=7	=7-	=7	=7-	=7	=7-	=7
.	.	.	.	.	.	2c#X/	-nio-
4F/	.	4A/	.	4A/	.	.	.
4E/	.	4G/	.	2B-/	-wi	1d/	-wi
4D/	.	4F/	.	.	.	.	.
2E/	.	2G/	-nio-	2G/	.	.	.
!	!	!	!	!	!	!LO:SIC:s=2c#:v	!
2AA/	-nio-	2A/	-wi	2c/	.	2cny/	ſwe-
=8-	=8	=8-	=8	=8-	=8	=8-	=8
2BB-/	-wi	2F/	ſwe-	2B-/	ſwe-	000d/	-mu.
2GG/	ſwe-	2G/	.	2B-/	.	.	.
*000/left	*	*000/left	*	*000/left	*	*	*
000D/	-mu.	000F#X/	-mu.	000A/	-mu.	.	.
.	.	.	.	.	.	1ryy	.
==	==	==	==	==	==	==	==
*-	*-	*-	*-	*-	*-	*-	*-
!!!RDF**kern: l = terminal long
!!!system-decoration: s1,s2,s3,s4
!!!ENC: Marta Lawrence
!!!END: 2020-02-19
!!!URL-scan: https://polona.pl/item/melodiae-na-psalterz-polski,Nzk3MTM4ODQ/267 Scan on Polona
!!!IIIF: https://polona.pl/iiif/item/Nzk3MTM4ODQ/manifest.json
